X: 836
T: Rocky Mountain
B: jims roots
M:C|
L:1/8
Q: 1/4=100
K:D
V:1 
%S:Marcus Martin
([A2a]|:"D"[Aa])bag fga2 | "G"bagf efg2 | "D"fede fgaf | "A7"e[ed][ec][eB] [A4e] |
"D"[A3a] [Ag] [Af][Ag] [A2a] | "G"bagf efge | "D"defe "A7"dBAG | "D"[D2G] ([A,2D] [A,2D]) :|
|:[FA][GA] || [F2A] [AA][FA] [A2A] fe | d2 de dBAF | A2 AB AFED |
"A7"[A,2E] [A,E][A,F] [A,2E] DF | "D"A2 AF A2 [A2f] | [d2f] [df][ef] [d2f] (3BcB | "A7"A^GAc BAFA | "D"E2 D2D2 :|
% abcbook-tune_id 6298c279da7012e8cd2904a1


% abcbook-boost 0
% abcbook-tablature 
% abcbook-transpose 
% abcbook-lastupdated 1654178427043
% abcbook-soundfonts 
% abcbook-repeats 1


